X:5
T:The Smith is a Gallant Fireman
C:trad
L:1/8
R:Strathspey
M:4/4
K:D
Q:1/4=120
[| {g}A2 {GdGe}A>{d}c {g}e>f {gef}e>c | {g}e>f {ag}a>e {g}d>c {g}B<{d}A | {g}B2 {GdGe}B>{d}c {g}B>c {g}B<{d}A | {g}B>c {Gdc}d>e {g}f2 {ag}a2 | 
{g}A2 {GdGe}A>{d}c {g}e>f {gef}e>c | {g}e>f {ag}a>e {g}d>c {g}B<{d}A | {Gdc}d>e {g}f>A {g}c2 {GdG}e>c | {g}B>c {Gdc}d>e {g}f2 {g}e/f/g ||
{ag}a2 {GdG}a>e {ag}a2 {GdG}a>f | {g}e>f {ag}a>e {g}d>c {g}B<{d}A | {g}B2 {GdGe}B>{d}c {g}B>c {g}B<{d}A | {g}B>c {Gdc}d>e {g}f2 {g}e/f/g | 
{ag}a2 {GdG}a>e {ag}a2 {GdG}a>f | {g}e>f {ag}a>e {g}d>c {g}B<{d}A | {Gdc}d>e {g}f>A {g}c2 {GdG}e>c | {g}B>c {Gdc}d>e {g}f2 {ag}a2 |]


